X: 352
T: Duncan Davidson
R: strathspey
M: C
L: 1/8
Z: 2012 John Chambers <jc:trillian.mit.edu>
B: J. Anderson "Budget of Strathspeys, Reels and Country Dances" (Early 1800s) p.35 #2
F: http://imslp.org/wiki/Anderson%27s_Budget_of_Strathspeys,_Reels_and_Country_Dances_(Various)
K: D
F |\
D>EDd A>FAB | D>E D(d/c/) B/A/G/F/ E2 | D>EDd A>FAg | fdef ddd :|
g |\
Tf>edf Tg>fea | cAeA cd.e.g | fe.d.f gf.e.a | cdef dd (de/g/) |
fed(e/f/) gfe(f/a/) | .c.A.e.A .f.A.e.g | f>dg>e a>fb>g | f>de>f ddd :|

%%sep 2 1 500
%%sep 1 1 500

